X:27
T: WILLKOMMEN LIEBER MONDENSCHEIN
N: F0085
O: Europa, Mitteleuropa, Deutschland
R: Moral - Lied
M: 6/8
L: 1/8
K: G
G | d2ddAB | AGGG2
G | g2ggfe | d4z
B | c2eA2c | B2dG2
B | ABcDEF | G4z

@@@ Tune index: 5458
